packages/ffe-icons/icons/filled/md/table_lamp.svg

<svg xmlns="http://www.w3.org/2000/svg" height="24" viewBox="0 -960 960 960" width="24"><path d="M549.999-130.001q-12.749 0-21.374-8.628Q520-147.258 520-160.013q0-12.756 8.625-21.371 8.625-8.615 21.374-8.615h240q12.75 0 21.375 8.628 8.625 8.629 8.625 21.384 0 12.756-8.625 21.371-8.625 8.615-21.375 8.615h-240Zm119.987-115.384q-12.756 0-21.371-8.625Q640-262.635 640-275.384v-363.077q0-20.847-14.577-35.424-14.577-14.577-35.424-14.577H433.846v116.923q0 15.365-10.394 25.759-10.395 10.394-25.76 10.394H192.695q-20.077 0-30.731-16.269t-2.423-34.346l83.461-190.613q9.231-20.077 26.826-31.731t39.25-11.654h52.461q29.668 0 50.795 21 21.127 21 21.512 50.538h156.153q45.833 0 77.916 32.083 32.084 32.084 32.084 77.917v363.077q0 12.749-8.629 21.374-8.629 8.625-21.384 8.625Z"/></svg>

<svg xmlns="http://www.w3.org/2000/svg" height="24" viewBox="0 -960 960 960" width="24"><path d="M550-130q-12.75 0-21.38-8.63-8.62-8.63-8.62-21.38 0-12.76 8.62-21.37Q537.25-190 550-190h240q12.75 0 21.37 8.63 8.63 8.63 8.63 21.38 0 12.76-8.63 21.37Q802.75-130 790-130H550Zm119.99-115.39q-12.76 0-21.37-8.62-8.62-8.62-8.62-21.37v-363.08q0-20.85-14.58-35.43-14.57-14.57-35.42-14.57H433.85v116.92q0 15.37-10.4 25.76-10.39 10.39-25.76 10.39h-205q-20.07 0-30.73-16.26-10.65-16.27-2.42-34.35L243-776.61q9.23-20.08 26.83-31.73Q287.42-820 309.08-820h52.46q29.67 0 50.79 21 21.13 21 21.52 50.54H590q45.83 0 77.92 32.08Q700-684.29 700-638.46v363.08q0 12.75-8.63 21.37-8.63 8.62-21.38 8.62Z"/></svg>
